X: 332
T: Joey Beaton
C: Brenda Stubbert
R: reel
Z: 2014 John Chambers <jc:trillian.mit.edu>
S: Page of unknown origin from Concord Slow Scottish Session collection
M: C|
L: 1/8
K: D
   B | AF~F2   GECE | DEFA TBABd | egTfe dcdB | AF~F2 GFEF |
       AF~F2   GECE | DEFA TBABd | egTfe dcdB | AFGE  FDD :|
|: g | fd{e}dc dAFA | dcde  fdgf | eB~B2 eBgB | egTfe dcd
[1 e | fd{e}dc dAFA | dcde  fdaf | gbag  fdec | dBAG  FDD :|
[2 B | AF~F2   GECE | DEFA TBABd | egTfe dcdB | AFGE  FDD |]

%%sep 1 1 500

